!!!OTL: GESTERN ABEND WAR VETTER MICHEL HIER
!!!ARE: Europa, Mitteleuropa, Deutschland
!!!SCT: B0701
!!!YEM: Copyright 1995, estate of Helmut Schaffrath.
**kern
*ICvox
*Ivox
*M4/4
*k[b-]
*F:
{8.f
16g
=1
4a
4f
4f
8g
8a
=2
4b-
4g
4g}
{8cc
8b-
=3
4a
4f
4f
8.e
16f
=4
8g
8f
8e
8d
4c}
{8.f
16g
=5
4a
4f
4f
8.g
16a
=6
4b-
4g
4g}
{8.cc
16b-
=7
4a
4f
8g
8f
8g
8a
=8
4f
2r}
{8.a
16b-
=9
4cc
4cc
4cc
4ee-
=10
4dd
4b-
4b-}
{8.b-
16cc
=11
4dd
4dd
4dd
4ff
=12
4ee
4dd
4cc}
{8.f
16g
=13
4a
4f
4f
8.g
16a
=14
4b-
4g
4g}
{8.cc
16b-
=15
4a
4a
8g
8f
8g
8a
=16
4f
2r}
==
!!!AGN: Scherz - Lied
!!!ONB: ESAC (Essen Associative Code) Database: BOEHME
!!!AMT: simple quadruple
!!!AIN: vox
!!!EED: Helmut Schaffrath
!!!EEV: 1.0
*-
